src/img/money.svg

<svg width="55" height="55" viewBox="0 0 55 55" fill="none" xmlns="http://www.w3.org/2000/svg">
<path d="M23.9286 31.7857V29.8571H26.5V24.0714H26.4598C26.1384 24.5737 25.8371 24.7946 25.3549 25.2165L23.808 23.6094L26.7812 20.8571H29.0714V29.8571H31.6429V31.7857H23.9286ZM34.2143 26.6428C34.2143 22.9866 32.0045 18.2857 27.7857 18.2857C23.567 18.2857 21.3571 22.9866 21.3571 26.6428C21.3571 30.2991 23.567 35 27.7857 35C32.0045 35 34.2143 30.2991 34.2143 26.6428ZM44.5 31.7857C41.6674 31.7857 39.3571 34.096 39.3571 36.9286H16.2143C16.2143 34.096 13.904 31.7857 11.0714 31.7857V21.5C13.904 21.5 16.2143 19.1897 16.2143 16.3571H39.3571C39.3571 19.1897 41.6674 21.5 44.5 21.5V31.7857ZM47.0714 15.0714C47.0714 14.3683 46.4888 13.7857 45.7857 13.7857H9.78571C9.08259 13.7857 8.5 14.3683 8.5 15.0714V38.2143C8.5 38.9174 9.08259 39.5 9.78571 39.5H45.7857C46.4888 39.5 47.0714 38.9174 47.0714 38.2143V15.0714Z" fill="white"/>
</svg>

<svg xmlns="http://www.w3.org/2000/svg" width="55" height="55" fill="none" viewBox="0 0 55 55"><path fill="#fff" d="M23.929 31.786v-1.929H26.5v-5.786h-.04c-.322.503-.623.724-1.105 1.145l-1.547-1.607 2.973-2.752h2.29v9h2.572v1.929zm10.285-5.143c0-3.656-2.21-8.357-6.428-8.357-4.219 0-6.429 4.7-6.429 8.357S23.567 35 27.786 35c4.218 0 6.428-4.7 6.428-8.357M44.5 31.786a5.153 5.153 0 0 0-5.143 5.143H16.214a5.153 5.153 0 0 0-5.143-5.143V21.5a5.153 5.153 0 0 0 5.143-5.143h23.143A5.153 5.153 0 0 0 44.5 21.5zm2.571-16.715c0-.703-.582-1.285-1.285-1.285h-36c-.703 0-1.286.582-1.286 1.285v23.143c0 .703.583 1.286 1.286 1.286h36c.703 0 1.285-.583 1.285-1.286z"/></svg>
